X: 6
T: Teddy O'Neill   #2
O: Rice-Walsh manuscript
R: air
%S: s:2 b:10(6+4)
B: Francis O'Neill: "Waifs and Strays" #6
Z: 2000 Paul Kinder <Ptk12142@aol.com>
M: 6/8
L: 1/8
Q: "Andante"
P: A1A1 BA2
K: D
% = = = = = = = = = =
"^A"|: F/G/ | [AF]ff f2 e/f/ | gBe dcB |[1 [AF]dd dcd | fee e2 :|[2 Adf a2g/f/ | e<ac "^fine"[d3F3] |]
"^B"[| [ec]ee e2 d/e/ | gBe dcB | [AF]dd dcd | fee "^->A2"e2 |]
